launcher/android/assets/skins/day/svg/finger_click.svg

<svg enable-background="new 0 0 74.74 104.78" height="104.783" viewBox="0 0 74.74 104.78" width="74.7387" xmlns="http://www.w3.org/2000/svg"><path d="m71.8892 76.8798c.5253-7.412-4.9067-27.6093-7.7974-32.036-1.4693-2.256-2.36-7.776-7.464-9.172-2.0106-.552-3.4733-.068-3.916.036-.0053-.5986-1.672-4.796-5.636-6.7546-2.448-1.2134-5.4213-.1094-5.5253-.0734-.0734-.2706-.7974-1.896-4.9174-4.5-1.8746-1.1827-5.4679-3.224-7.6879-1.8226-.2334.1453-.4427.2973-.6614.4679-1.2493.9854-1.948 2.1827-2.348 3.3241-.5627 1.0146-.6253 2.9106-.6253 3.6093-.0213.0666-.036.12-.068.1293-.0827.0427-1.8694-2.8066-3.844-6.6866-1.12-2.2094-3.952-4.4854-5.208-6.896-.12-.2347-2.8664-5.8522-2.9811-6.0869l-1.375-2.74997c-7.87496-2.125-4.62496 6.24997-4.73726 10.13277l.09869.1881s-.01068-.0467-.02136-.1147l.052.052c.68802 2.9173 1.76135 6.0986 3.05203 8.98 3.172 7.052 5.5053 13.312 6.516 16.1813 2.276 6.4587 2.38 24.7867 2.38 24.7667l-1.3387.4373s-1.0667-2.6413-3.2706-5.4333c.1146-9.5307-6.95338-12.6667-8.29069-10.8747-1.15735 1.5413-.57868 4.48-1.19867 7.188-.74002 3.2347-2.09336 5.468-2.07734 7.1867.01465 1.6413 1.83332 4.2507 3.60932 7.688 1.63467 3.1506 3.156 7.1307 4.86398 9.0466 1.8387 2.0574 8.6307 5.708 14.5573 8.2347 5.5787 2.3747 7.4787 2.1933 10.3694 3.6933 2.8907 1.4947 3.2453 6.8799 4.016 7.4739 5.5413 4.27 28.8906 1.182 33.2186-11.4699 2.172-6.3586-2.0159-10.3639-1.7439-14.1453z" fill="#fff" stroke="#000" stroke-linejoin="round"/><path d="m8.83206.499939c4.49914-.064819 8.07364 3.437351 7.96874 7.821041-.0233 1.10566-.2817 2.15572-.7226 3.11692-.0603.1389-.1516.2538-.2196.3834-2.4808-5.7357-4.3107-10.15644-10.20668-6.35798-1.83579 1.1853-2.06308 5.04118-1.23551 9.88228-.51675-.2888-1.00244-.6222-1.43564-1.0204-.15152-.1445-.27975-.2685-.38659-.376-1.3346-1.4038-2.14664-3.2854-2.09418-5.38932.099091-4.3837 3.83286-7.995122 8.33206-8.059941z" fill="#fff" stroke="#000" stroke-linejoin="round"/></svg>

﻿<?xml version="1.0" encoding="utf-8"?>
<!DOCTYPE svg PUBLIC "-//W3C//DTD SVG 1.1//EN" "http://www.w3.org/Graphics/SVG/1.1/DTD/svg11.dtd">
<svg xmlns="http://www.w3.org/2000/svg" xmlns:xlink="http://www.w3.org/1999/xlink" version="1.1" baseProfile="full" width="74.7387" height="104.783" viewBox="0 0 74.74 104.78" enable-background="new 0 0 74.74 104.78" xml:space="preserve">
	<path fill="#FFFFFF" fill-opacity="1" stroke-linejoin="round" stroke="#000000" stroke-opacity="1" d="M 71.8892,76.8798C 72.4145,69.4678 66.9825,49.2705 64.0918,44.8438C 62.6225,42.5878 61.7318,37.0678 56.6278,35.6718C 54.6172,35.1198 53.1545,35.6038 52.7118,35.7078C 52.7065,35.1092 51.0398,30.9118 47.0758,28.9532C 44.6278,27.7398 41.6545,28.8438 41.5505,28.8798C 41.4771,28.6092 40.7531,26.9838 36.6331,24.3798C 34.7585,23.1971 31.1652,21.1558 28.9452,22.5572C 28.7118,22.7025 28.5025,22.8545 28.2838,23.0251C 27.0345,24.0105 26.3358,25.2078 25.9358,26.3492C 25.3731,27.3638 25.3105,29.2598 25.3105,29.9585C 25.2892,30.0251 25.2745,30.0785 25.2425,30.0878C 25.1598,30.1305 23.3731,27.2812 21.3985,23.4012C 20.2785,21.1918 17.4465,18.9158 16.1905,16.5052C 16.0705,16.2705 13.3241,10.653 13.2094,10.4183L 11.8344,7.66833C 3.95944,5.54333 7.20944,13.9183 7.09714,17.8011L 7.19583,17.9892C 7.19583,17.9892 7.18515,17.9425 7.17447,17.8745L 7.22647,17.9265C 7.91449,20.8438 8.98782,24.0251 10.2785,26.9065C 13.4505,33.9585 15.7838,40.2185 16.7945,43.0878C 19.0705,49.5465 19.1745,67.8745 19.1745,67.8545L 17.8358,68.2918C 17.8358,68.2918 16.7691,65.6505 14.5652,62.8585C 14.6798,53.3278 7.61182,50.1918 6.27451,51.9838C 5.11716,53.5251 5.69583,56.4638 5.07584,59.1718C 4.33582,62.4065 2.98248,64.6398 2.9985,66.3585C 3.01315,67.9998 4.83182,70.6092 6.60782,74.0465C 8.24249,77.1971 9.76382,81.1772 11.4718,83.0931C 13.3105,85.1505 20.1025,88.8011 26.0291,91.3278C 31.6078,93.7025 33.5078,93.5211 36.3985,95.0211C 39.2892,96.5158 39.6438,101.901 40.4145,102.495C 45.9558,106.765 69.3051,103.677 73.6331,91.0251C 75.8051,84.6665 71.6172,80.6612 71.8892,76.8798 Z "/>
	<path fill="#FFFFFF" fill-opacity="1" stroke-linejoin="round" stroke="#000000" stroke-opacity="1" d="M 8.83206,0.499939C 13.3312,0.43512 16.9057,3.93729 16.8008,8.32098C 16.7775,9.42664 16.5191,10.4767 16.0782,11.4379C 16.0179,11.5768 15.9266,11.6917 15.8586,11.8213C 13.3778,6.0856 11.5479,1.66486 5.65192,5.46332C 3.81613,6.64862 3.58884,10.5045 4.41641,15.3456C 3.89966,15.0568 3.41397,14.7234 2.98077,14.3252C 2.82925,14.1807 2.70102,14.0567 2.59418,13.9492C 1.25958,12.5454 0.44754,10.6638 0.5,8.55988C 0.599091,4.17618 4.33286,0.564758 8.83206,0.499939 Z "/>
</svg>
